COLOR/categories 16/16/preferences-other.svg

<svg height="16" width="16" xmlns="http://www.w3.org/2000/svg"><path d="m6 10c-.554 0-1 .446-1 1v2c0 .554.446 1 1 1h.6074219 3.3925781 3.392578.607422c.554 0 1-.446 1-1v-2c0-.554-.446-1-1-1h-2.070312-1.929688-1.9296875z" fill="#ccc"/><g fill="#9b33ae" stroke-width="1.012726" transform="matrix(1.0141184 0 0 1.0141184 -559.91644 -466.60587)"><path d="m12.466797-.01953125c-1.933001 0-3.5000001 1.56699905-3.5000001 3.50000005 0 .401078.0922665.7895643.2167969 1.1484374l-4.5605469 4.5703126c-.3609552-.1258521-.7523875-.21875-1.15625-.21875-1.9329908 0-3.50000003 1.5670092-3.50000003 3.5000002 0 .369342.08146379.728267.18750001 1.0625l1.96875002-1.96875c.1958668-.195877.4631313-.3125.71875-.3125.2556288 0 .522873.116623.71875.3125l.6875.6875c.3917438.391754.3917438 1.045756 0 1.4375l-2.03125 2.03125c.3867137.147169.811627.25 1.25.25 1.3863054 0 2.5738416-.81153 3.140625-1.980469h-.6074219c-.554 0-1-.446-1-1v-2c0-.554.446-1 1-1h2.0683594.0019531l2.0449215-2.0507812c.002602.0000247.005214-.000033.007813 0l1.1875-1.1875c.360945.125852.752387.21875 1.15625.21875 1.932991 0 3.5-1.5670093 3.5-3.5 0-.4038626-.092898-.7953152-.21875-1.15625l-1.90625 1.90625c-.391744.3917336-1.014516.3917336-1.40625 0l-.71875-.71875c-.391734-.391754-.391734-1.0145265 0-1.40625l1.90625-1.90625005c-.360955-.12587238-.752398-.21875-1.15625-.21875z" fill="#924d8b" transform="matrix(.98607815 0 0 .98607815 552.12137 460.10986)"/><g fill="#9b33ae" transform="matrix(.98607815 0 0 .98607815 552.08863 460.0906)"><path d="m12.5 0c-1.933001 0-3.5 1.5669991-3.5 3.5 0 .08302.0180598.1623275.0253906.2441406.1333457-1.8112695 1.6292854-3.2441406 3.4746094-3.2441406.263545 0 .517674.0469067.765625.109375l.390625-.390625c-.360955-.12587238-.752398-.21875-1.15625-.21875zm3.28125 2.34375-1.90625 1.90625c-.391744.3917337-1.014516.3917337-1.40625 0l-.71875-.71875c-.130217-.1302233-.200495-.2888203-.244141-.453125-.087655.3299705-.017376.6915943.244141.953125l.71875.71875c.391734.3917337 1.014506.3917337 1.40625 0l1.90625-1.90625c.09998.2867393.165028.5959288.193359.9121094.006336-.0860585.025391-.1681829.025391-.2558594 0-.4038625-.092898-.7953151-.21875-1.15625zm-6.6738281 2.4140625-4.4511719 4.4609375c-.3609552-.1258521-.7523875-.21875-1.15625-.21875-1.9329908 0-3.5 1.567009-3.5 3.5 0 .084734.01750224.166535.02539063.25.13051465-1.814037 1.62730687-3.25 3.47460937-3.25.4038625 0 .7952948.092898 1.15625.21875l4.5605469-4.5703125c-.0435649-.1255458-.076378-.2585056-.109375-.390625zm-4.5800781 8.4921875c-.0429595.171837-.1138517.336508-.2460938.46875l-2.03125 2.03125c.1229663.0468.2548711.07928.3847656.115234l1.6464844-1.646484c.2595017-.259502.330394-.631548.2460938-.96875z" fill="#fff" opacity=".3"/><path d="m13.232422.08984375-1.515625 1.51562505c-.261517.2615103-.331796.6231477-.244141.953125.043646-.1643013.113924-.322912.244141-.453125l1.90625-1.90625005c-.125403-.04373073-.25862-.07611798-.390625-.109375zm-4.2402345 3.13476565c-.0063356.0860589-.0253906.1681825-.0253906.2558594 0 .2607674.0460968.5122681.1074219.7578124l.109375-.109375c-.0987536-.2845891-.1633211-.5908625-.1914063-.9042968zm6.9492185.0117187c-.133345 1.8112597-1.629295 3.2441407-3.474609 3.2441407-.403863 0-.795305-.092898-1.15625-.21875l-1.1875 1.1875c-.0026-.000033-.005213.0000246-.007813 0l-2.5449215 2.5507812h.5l2.0449215-2.0507812c.0026.0000246.005213-.000033.007813 0l1.1875-1.1875c.360957.125852.752387.21875 1.15625.21875 1.932991 0 3.5-1.5670093 3.5-3.5 0-.08302-.01806-.1623272-.025391-.2441407zm-13.0996091 7.5253909c-.2556187 0-.5228832.116623-.71875.3125l-1.96875002 1.96875c-.08170959-.257554-.13561345-.532153-.16210938-.8125-.00605401.084145-.02539063.164312-.02539063.25 0 .369342.08146379.728267.18750001 1.0625l1.96875002-1.96875c.1958668-.195877.4631313-.3125.71875-.3125.2556288 0 .522873.116623.71875.3125l.6875.6875c.1322421.132245.2031342.296912.2460937.46875.0843-.3372.0134081-.709242-.2460937-.96875l-.6875-.6875c-.195877-.195877-.4631212-.3125-.71875-.3125zm3.4628906 3.238281c-.6296827.893309-1.660055 1.480469-2.8378906 1.480469-.2989802 0-.5866267-.057655-.8652344-.134766l-.3847656.384766c.3867138.147169.811627.25 1.25.25 1.3863054 0 2.5738405-.811535 3.140625-1.980469z" fill="#000" opacity=".2" transform="translate(.033202 .019527)"/></g></g><g enable-background="new" transform="matrix(.03076923063 0 0 .03197812662 -3.44805964215 6.7529200054)"><rect fill="#050505" height="65" opacity=".2" rx="32.141846" ry="32.498447" width="65" x="307.06195" y="136.60905"/><rect fill="#f8f7f7" height="65" rx="32.141846" ry="32.498447" width="65" x="307.06195" y="132.21899"/></g><g enable-background="new" transform="matrix(.03076923063 0 0 .03197812662 -.44805964215 6.7529200054)"><rect fill="#050505" height="65" opacity=".2" rx="32.141846" ry="32.498447" width="65" x="307.06195" y="136.60905"/><rect fill="#f8f7f7" height="65" rx="32.141846" ry="32.498447" width="65" x="307.06195" y="132.21899"/></g><g enable-background="new" transform="matrix(.03076923063 0 0 .03197812662 2.55194035785 6.7529200054)"><rect fill="#050505" height="65" opacity=".2" rx="32.141846" ry="32.498447" width="65" x="307.06195" y="136.60905"/><rect fill="#f8f7f7" height="65" rx="32.141846" ry="32.498447" width="65" x="307.06195" y="132.21899"/></g><path d="m6 10c-.554 0-1 .446-1 1v.5c0-.554.446-1 1-1h2.0703125 1.9296875 1.929688 2.070312c.554 0 1 .446 1 1v-.5c0-.554-.446-1-1-1h-2.070312-1.929688-1.9296875z" fill="#fff" opacity=".3"/><path d="m14 14c.554 0 1-.446 1-1v-.5c0 .554-.446 1-1 1h-2.070312-1.929688-1.929688-2.070312c-.554 0-1-.446-1-1v.5c0 .554.446 1 1 1h2.070312 1.929688 1.929688z" opacity=".2"/></svg>

<?xml version="1.0" encoding="UTF-8" standalone="no"?>
<svg
   xmlns:osb="http://www.openswatchbook.org/uri/2009/osb"
   xmlns:dc="http://purl.org/dc/elements/1.1/"
   xmlns:cc="http://creativecommons.org/ns#"
   xmlns:rdf="http://www.w3.org/1999/02/22-rdf-syntax-ns#"
   xmlns:svg="http://www.w3.org/2000/svg"
   xmlns="http://www.w3.org/2000/svg"
   xmlns:sodipodi="http://sodipodi.sourceforge.net/DTD/sodipodi-0.dtd"
   xmlns:inkscape="http://www.inkscape.org/namespaces/inkscape"
   height="16"
   id="svg7384"
   version="1.1"
   width="16"
   sodipodi:docname="preferences-other.svg"
   inkscape:version="0.92.4 (5da689c313, 2019-01-14)">
  <sodipodi:namedview
     pagecolor="#ffffff"
     bordercolor="#666666"
     borderopacity="1"
     objecttolerance="10"
     gridtolerance="10"
     guidetolerance="10"
     inkscape:pageopacity="0"
     inkscape:pageshadow="2"
     inkscape:window-width="1920"
     inkscape:window-height="1016"
     id="namedview8927"
     showgrid="false"
     inkscape:zoom="52.562497"
     inkscape:cx="7.9667975"
     inkscape:cy="8.0195264"
     inkscape:window-x="0"
     inkscape:window-y="27"
     inkscape:window-maximized="1"
     inkscape:current-layer="svg7384" />
  <metadata
     id="metadata20854">
    <rdf:RDF>
      <cc:Work
         rdf:about="">
        <dc:title />
        <dc:format>image/svg+xml</dc:format>
        <dc:type
           rdf:resource="http://purl.org/dc/dcmitype/StillImage" />
      </cc:Work>
    </rdf:RDF>
  </metadata>
  <defs
     id="defs7386">
    <linearGradient
       id="linearGradient5606"
       osb:paint="solid">
      <stop
         id="stop5608"
         offset="0"
         style="stop-color:#000000;stop-opacity:1;" />
    </linearGradient>
    <linearGradient
       id="linearGradient4526"
       osb:paint="solid">
      <stop
         id="stop4528"
         offset="0"
         style="stop-color:#ffffff;stop-opacity:1;" />
    </linearGradient>
    <linearGradient
       id="linearGradient3600-4"
       osb:paint="gradient">
      <stop
         id="stop3602-7"
         offset="0"
         style="stop-color:#f4f4f4;stop-opacity:1" />
      <stop
         id="stop3604-6"
         offset="1"
         style="stop-color:#dbdbdb;stop-opacity:1" />
    </linearGradient>
    <linearGradient
       id="linearGradient10935">
      <stop
         style="stop-color:#319741;stop-opacity:1"
         offset="0"
         id="stop10931" />
      <stop
         style="stop-color:#0e8420;stop-opacity:1"
         offset="1"
         id="stop10933" />
    </linearGradient>
  </defs>
  <path
     style="opacity:1;fill:#cccccc;fill-opacity:1;stroke:none;stroke-width:1.96006012;stroke-linecap:round;stroke-miterlimit:4;stroke-dasharray:none;stroke-opacity:1"
     d="M 6 10 C 5.446 10 5 10.446 5 11 L 5 13 C 5 13.554 5.446 14 6 14 L 6.6074219 14 L 10 14 L 13.392578 14 L 14 14 C 14.554 14 15 13.554 15 13 L 15 11 C 15 10.446 14.554 10 14 10 L 11.929688 10 L 10 10 L 8.0703125 10 L 6 10 z "
     id="rect827" />
  <g
     id="layer9"
     label="status"
     style="display:inline"
     transform="translate(-773.00024,-92.999939)" />
  <g
     id="layer2"
     style="display:inline"
     transform="translate(-532.00004,-459.99994)" />
  <g
     id="layer4"
     style="display:inline"
     transform="translate(-532.00004,-459.99994)" />
  <g
     id="g1812"
     style="display:inline"
     transform="translate(-532.00004,-459.99994)" />
  <g
     id="g6217"
     style="display:inline"
     transform="translate(-532.00004,-459.99994)" />
  <g
     id="g1833"
     style="display:inline"
     transform="translate(-532.00004,-459.99994)" />
  <g
     id="layer1"
     style="display:inline"
     transform="translate(-532.00004,-459.99994)" />
  <g
     style="fill:#9b33ae;fill-opacity:1"
     id="g10"
     transform="matrix(1.0141184,0,0,1.0141184,-559.91644,-466.60587)">
    <path
       style="fill:#924d8b;fill-opacity:1;stroke-width:1.01272607"
       d="M 12.466797 -0.01953125 C 10.533796 -0.01953125 8.9667969 1.5474678 8.9667969 3.4804688 C 8.9667969 3.8815468 9.0590634 4.2700331 9.1835938 4.6289062 L 4.6230469 9.1992188 C 4.2620917 9.0733667 3.8706594 8.9804688 3.4667969 8.9804688 C 1.5338061 8.9804688 -0.033203125 10.547478 -0.033203125 12.480469 C -0.033203125 12.849811 0.048260655 13.208736 0.15429688 13.542969 L 2.1230469 11.574219 C 2.3189137 11.378342 2.5861782 11.261719 2.8417969 11.261719 C 3.0974257 11.261719 3.3646699 11.378342 3.5605469 11.574219 L 4.2480469 12.261719 C 4.6397907 12.653473 4.6397907 13.307475 4.2480469 13.699219 L 2.2167969 15.730469 C 2.6035106 15.877638 3.0284239 15.980469 3.4667969 15.980469 C 4.8531023 15.980469 6.0406385 15.168939 6.6074219 14 L 6 14 C 5.446 14 5 13.554 5 13 L 5 11 C 5 10.446 5.446 10 6 10 L 8.0683594 10 L 8.0703125 10 L 10.115234 7.9492188 C 10.117836 7.9492435 10.120448 7.9491858 10.123047 7.9492188 L 11.310547 6.7617188 C 11.671492 6.8875708 12.062934 6.9804688 12.466797 6.9804688 C 14.399788 6.9804688 15.966797 5.4134595 15.966797 3.4804688 C 15.966797 3.0766062 15.873899 2.6851536 15.748047 2.3242188 L 13.841797 4.2304688 C 13.450053 4.6222024 12.827281 4.6222024 12.435547 4.2304688 L 11.716797 3.5117188 C 11.325063 3.1199648 11.325063 2.4971923 11.716797 2.1054688 L 13.623047 0.19921875 C 13.262092 0.073346374 12.870649 -0.01953125 12.466797 -0.01953125 z "
       id="path2"
       transform="matrix(0.98607815,0,0,0.98607815,552.12137,460.10986)" />
    <g
       style="fill:#9b33ae;fill-opacity:1;stroke-width:1.01272595"
       id="g8"
       transform="matrix(0.98607815,0,0,0.98607815,552.08863,460.0906)">
      <path
         style="opacity:0.3;fill:#ffffff;fill-opacity:1"
         id="path4"
         d="M 12.5,0 C 10.566999,0 9,1.5669991 9,3.5 9,3.58302 9.0180598,3.6623275 9.0253906,3.7441406 9.1587363,1.9328711 10.654676,0.5 12.5,0.5 c 0.263545,0 0.517674,0.0469067 0.765625,0.109375 L 13.65625,0.21875 C 13.295295,0.09287762 12.903852,0 12.5,0 Z M 15.78125,2.34375 13.875,4.25 c -0.391744,0.3917337 -1.014516,0.3917337 -1.40625,0 L 11.75,3.53125 C 11.619783,3.4010267 11.549505,3.2424297 11.505859,3.078125 11.418204,3.4080955 11.488483,3.7697193 11.75,4.03125 L 12.46875,4.75 c 0.391734,0.3917337 1.014506,0.3917337 1.40625,0 l 1.90625,-1.90625 c 0.09998,0.2867393 0.165028,0.5959288 0.193359,0.9121094 C 15.980945,3.6698009 16,3.5876765 16,3.5 16,3.0961375 15.907102,2.7046849 15.78125,2.34375 Z M 9.1074219,4.7578125 4.65625,9.21875 C 4.2952948,9.0928979 3.9038625,9 3.5,9 1.5670092,9 0,10.567009 0,12.5 0,12.584734 0.01750224,12.666535 0.02539063,12.75 0.15590528,10.935963 1.6526975,9.5 3.5,9.5 3.9038625,9.5 4.2952948,9.592898 4.65625,9.71875 L 9.2167969,5.1484375 C 9.173232,5.0228917 9.1404189,4.8899319 9.1074219,4.7578125 Z M 4.5273438,13.25 C 4.4843843,13.421837 4.4134921,13.586508 4.28125,13.71875 L 2.25,15.75 c 0.1229663,0.0468 0.2548711,0.07928 0.3847656,0.115234 L 4.28125,14.21875 C 4.5407517,13.959248 4.611644,13.587202 4.5273438,13.25 Z"
         inkscape:connector-curvature="0"
         sodipodi:nodetypes="sscsccsccscccscccscccsscsccccsccsc" />
      <path
         style="opacity:0.2;fill:#000000;fill-opacity:1"
         d="M 13.232422 0.08984375 L 11.716797 1.6054688 C 11.45528 1.8669791 11.385001 2.2286165 11.472656 2.5585938 C 11.516302 2.3942925 11.58658 2.2356818 11.716797 2.1054688 L 13.623047 0.19921875 C 13.497644 0.15548802 13.364427 0.12310077 13.232422 0.08984375 z M 8.9921875 3.2246094 C 8.9858519 3.3106683 8.9667969 3.3927919 8.9667969 3.4804688 C 8.9667969 3.7412362 9.0128937 3.9927369 9.0742188 4.2382812 L 9.1835938 4.1289062 C 9.0848402 3.8443171 9.0202727 3.5380437 8.9921875 3.2246094 z M 15.941406 3.2363281 C 15.808061 5.0475878 14.312111 6.4804688 12.466797 6.4804688 C 12.062934 6.4804688 11.671492 6.3875708 11.310547 6.2617188 L 10.123047 7.4492188 C 10.120447 7.4491858 10.117834 7.4492434 10.115234 7.4492188 L 7.5703125 10 L 8.0703125 10 L 10.115234 7.9492188 C 10.117834 7.9492434 10.120447 7.9491858 10.123047 7.9492188 L 11.310547 6.7617188 C 11.671504 6.8875708 12.062934 6.9804688 12.466797 6.9804688 C 14.399788 6.9804688 15.966797 5.4134595 15.966797 3.4804688 C 15.966797 3.3974488 15.948737 3.3181416 15.941406 3.2363281 z M 2.8417969 10.761719 C 2.5861782 10.761719 2.3189137 10.878342 2.1230469 11.074219 L 0.15429688 13.042969 C 0.072587285 12.785415 0.01868343 12.510816 -0.0078125 12.230469 C -0.01386651 12.314614 -0.033203125 12.394781 -0.033203125 12.480469 C -0.033203125 12.849811 0.048260655 13.208736 0.15429688 13.542969 L 2.1230469 11.574219 C 2.3189137 11.378342 2.5861782 11.261719 2.8417969 11.261719 C 3.0974257 11.261719 3.3646699 11.378342 3.5605469 11.574219 L 4.2480469 12.261719 C 4.380289 12.393964 4.4511811 12.558631 4.4941406 12.730469 C 4.5784406 12.393269 4.5075487 12.021227 4.2480469 11.761719 L 3.5605469 11.074219 C 3.3646699 10.878342 3.0974257 10.761719 2.8417969 10.761719 z M 6.3046875 14 C 5.6750048 14.893309 4.6446325 15.480469 3.4667969 15.480469 C 3.1678167 15.480469 2.8801702 15.422814 2.6015625 15.345703 L 2.2167969 15.730469 C 2.6035107 15.877638 3.0284239 15.980469 3.4667969 15.980469 C 4.8531023 15.980469 6.0406374 15.168934 6.6074219 14 L 6.3046875 14 z "
         transform="translate(0.03320189,0.01952687)"
         id="path6" />
    </g>
  </g>
  <g
     id="g904"
     transform="matrix(0.49230769,0,0,0.49230769,3.9702327,7.9044079)">
    <g
       id="g882"
       transform="matrix(0.0625,0,0,0.06495557,-15.068407,-2.3389596)"
       style="stroke:none;enable-background:new">
      <rect
         id="rect878"
         y="136.60905"
         x="307.06195"
         width="65"
         ry="32.498447"
         rx="32.141846"
         height="65"
         style="opacity:0.2;fill:#050505" />
      <rect
         id="rect880"
         y="132.21899"
         x="307.06195"
         width="65"
         ry="32.498447"
         rx="32.141846"
         height="65"
         style="fill:#f8f7f7" />
    </g>
  </g>
  <g
     transform="matrix(0.49230769,0,0,0.49230769,6.9702327,7.9044079)"
     id="g914">
    <g
       style="stroke:none;enable-background:new"
       transform="matrix(0.0625,0,0,0.06495557,-15.068407,-2.3389596)"
       id="g912">
      <rect
         style="opacity:0.2;fill:#050505"
         height="65"
         rx="32.141846"
         ry="32.498447"
         width="65"
         x="307.06195"
         y="136.60905"
         id="rect908" />
      <rect
         style="fill:#f8f7f7"
         height="65"
         rx="32.141846"
         ry="32.498447"
         width="65"
         x="307.06195"
         y="132.21899"
         id="rect910" />
    </g>
  </g>
  <g
     id="g922"
     transform="matrix(0.49230769,0,0,0.49230769,9.9702327,7.9044079)">
    <g
       id="g920"
       transform="matrix(0.0625,0,0,0.06495557,-15.068407,-2.3389596)"
       style="stroke:none;enable-background:new">
      <rect
         id="rect916"
         y="136.60905"
         x="307.06195"
         width="65"
         ry="32.498447"
         rx="32.141846"
         height="65"
         style="opacity:0.2;fill:#050505" />
      <rect
         id="rect918"
         y="132.21899"
         x="307.06195"
         width="65"
         ry="32.498447"
         rx="32.141846"
         height="65"
         style="fill:#f8f7f7" />
    </g>
  </g>
  <path
     style="opacity:0.3;fill:#ffffff;fill-opacity:1;stroke:none;stroke-width:1.96006012;stroke-linecap:round;stroke-miterlimit:4;stroke-dasharray:none;stroke-opacity:1"
     d="M 6 10 C 5.446 10 5 10.446 5 11 L 5 11.5 C 5 10.946 5.446 10.5 6 10.5 L 8.0703125 10.5 L 10 10.5 L 11.929688 10.5 L 14 10.5 C 14.554 10.5 15 10.946 15 11.5 L 15 11 C 15 10.446 14.554 10 14 10 L 11.929688 10 L 10 10 L 8.0703125 10 L 6 10 z "
     id="path924" />
  <path
     id="path929"
     d="m 14,14 c 0.554,0 1,-0.446 1,-1 v -0.5 c 0,0.554 -0.446,1 -1,1 H 11.929688 10 8.070312 6 c -0.554,0 -1,-0.446 -1,-1 V 13 c 0,0.554 0.446,1 1,1 H 8.070312 10 11.929688 Z"
     style="opacity:0.2;fill:#000000;fill-opacity:1;stroke:none;stroke-width:1.96006012;stroke-linecap:round;stroke-miterlimit:4;stroke-dasharray:none;stroke-opacity:1"
     inkscape:connector-curvature="0" />
</svg>
